X:1
T:Mazurka : B
E:12
Z:Roger Ngaret (94-95)
R:mazurka
C:Trad.
S:
A:Bretagne
M:3/4
L:1/16
K:G
Q:1/4=130
G2F2 |: "Em"E4 E2D2 C2D2 | E6E2 F2G2 | "D"A2D2 F2A2 G2F2 |\
"Em"G4 E2G2 G2F2 | E4 E2D2 C2D2 | E6E2 F2G2 | "D"A2D2 F2A2 G2F2 |1\
"Em"E4 E2G2 G2F2 :|2 E4 E4 G2A2 |: "G"B4 G2B2 A2G2 | "D"d2A2 F2d2 A2F2 |\
"C"B2G2 E2B2 A2F2 | "Em"G2F2 E2F2 G2A2 | "G"B4 G2B2 A2G2 |\
"D"d2A2 F2d2 A2F2 | "C"B2G2 E2G2 F2D2 |1 "Em"E6F2 G2A2 :|2 E6G2 G2F2 |]
